kora/panel/16/pomodoneapp-paused.svg

<svg xmlns="http://www.w3.org/2000/svg" width="16" height="16" viewBox="0 0 16 16">
 <defs>
  <style id="current-color-scheme" type="text/css">
   .ColorScheme-Text { color:#dfdfdf; } .ColorScheme-Highlight { color:#4285f4; } .ColorScheme-NeutralText { color:#ff9800; } .ColorScheme-PositiveText { color:#4caf50; } .ColorScheme-NegativeText { color:#f44336; }
  </style>
 </defs> 
 <path style="opacity:0.3;fill:currentColor" class="ColorScheme-Text" d="m8 1c-3.84 0-7 3.16-7 7s3.16 7 7 7 7-3.16 7-7-3.16-7-7-7zm-2.5 3h5c.831 0 1.5.669 1.5 1.5v5c0 .831-.669 1.5-1.5 1.5h-5c-.831 0-1.5-.669-1.5-1.5v-5c0-.831.669-1.5 1.5-1.5z" />
 <path style="fill:currentColor" class="ColorScheme-Text" d="m5.5 5c-.277 0-.5.223-.5.5v5c0 .277.223.5.5.5h1c.277 0 .5-.223.5-.5v-5c0-.277-.223-.5-.5-.5zm4 0c-.277 0-.5.223-.5.5v5c0 .277.223.5.5.5h1c.277 0 .5-.223.5-.5v-5c0-.277-.223-.5-.5-.5z"/>
</svg>

<svg xmlns="http://www.w3.org/2000/svg" width="16" height="16" version="1.1">
 <defs>
  <style id="current-color-scheme" type="text/css">
   .ColorScheme-Text { color:#dfdfdf; } .ColorScheme-Highlight { color:#4285f4; }
  </style>
 </defs>
 <path style="fill:currentColor" class="ColorScheme-Text" d="M 8,1 A 7,7 0 0 0 1,8 7,7 0 0 0 8,15 7,7 0 0 0 15,8 7,7 0 0 0 8,1 Z M 5.5,4 H 10.5 C 11.331,4 12,4.669 12,5.5 V 10.5 C 12,11.331 11.331,12 10.5,12 H 5.5 C 4.669,12 4,11.331 4,10.5 V 5.5 C 4,4.669 4.669,4 5.5,4 Z M 5.5,5 C 5.223,5 5,5.223 5,5.5 V 10.5 C 5,10.777 5.223,11 5.5,11 H 6.5 C 6.777,11 7,10.777 7,10.5 V 5.5 C 7,5.223 6.777,5 6.5,5 Z M 9.5,5 C 9.223,5 9,5.223 9,5.5 V 10.5 C 9,10.777 9.223,11 9.5,11 H 10.5 C 10.777,11 11,10.777 11,10.5 V 5.5 C 11,5.223 10.777,5 10.5,5 Z"/>
</svg>
